assets/head.svg

<svg xmlns="http://www.w3.org/2000/svg" viewBox="0 0 861.841 1014.438"><g><g><path d="M170.436 481.536h64.991c72.022-6.002 106.586-255.817 171.466-266.879l-67.757-.528c-67.231 10.171-102.435 255.616-168.701 267.408z" fill="#f39c12"/><path d="M389.094 256.485c21.598 40.351 34.147 75.029 52.026 117.009 9.207-23.929 9.501-24.805 35.537-81.401-10.913-28.285-18.412-46.903-28.988-52.982-23.13-15.907-38.95-5.714-58.575 17.374zm96.204 58.691c-16.334 40.976-24.52 56.194-34.683 83.276 24.623 49.717 35.746 83.312 62.392 83.465h72.951c-34.633.096-99.311-170.789-100.66-166.741z" fill="#e74c3f" fill-opacity=".941"/><path d="M524.92 253.775c19.06-19.11 40.662-28.82 58.667-13.689 58.505 79.068 68.964 227.153 141.779 242.49h-72.356c-61.743-16.643-79.726-149.742-128.09-228.801z" fill="#2980bf" fill-opacity=".941"/><path d="M299.51 482.118l76.787-.201c66.373-47.652 84.912-230.644 169.166-267.544h-69.386c-78.278 32.512-111.137 227.14-176.567 267.544z" fill="#27ae6f"/></g><path d="M436.644 30c-160.682 0-266.325 64.678-328.104 184.907-35.461 57.104-56.602 128.067-78.54 366.776l64.851 25.789c13.478 220.199 47.151 235.611 194.891 232.3l1.937 144.666 350.437-4.918v-309.601c113.769-60.587 189.725-169.969 189.725-294.846 0-190.595-176.936-345.072-395.199-345.072zm10.88 42.923c163.953 0 296.883 133.848 296.883 298.97s-132.93 298.97-296.883 298.97c-163.953 0-296.883-133.848-296.883-298.97s132.93-298.97 296.883-298.97z" color="#000" fill="#d6d6d6" overflow="visible" enable-background="accumulate"/></g></svg>

<?xml version="1.0" encoding="UTF-8" standalone="no"?>
<!-- Created with Inkscape (http://www.inkscape.org/) -->

<svg
   xmlns:dc="http://purl.org/dc/elements/1.1/"
   xmlns:cc="http://creativecommons.org/ns#"
   xmlns:rdf="http://www.w3.org/1999/02/22-rdf-syntax-ns#"
   xmlns:svg="http://www.w3.org/2000/svg"
   xmlns="http://www.w3.org/2000/svg"
   version="1.1"
   width="100%"
   height="100%"
   viewBox="0 0 64 64"
   id="svg3784">
  <defs
     id="defs3786" />
  <metadata
     id="metadata3789">
    <rdf:RDF>
      <cc:Work
         rdf:about="">
        <dc:format>image/svg+xml</dc:format>
        <dc:type
           rdf:resource="http://purl.org/dc/dcmitype/StillImage" />
        <dc:title></dc:title>
      </cc:Work>
    </rdf:RDF>
  </metadata>
  <g
     id="layer1">
    <g
       transform="matrix(0.05769416,0,0,0.05769416,6.6653049,2.901446)"
       id="g4">
      <g
         id="g6">
        <path
           d="m 170.436,481.536 h 64.991 c 72.022,-6.002 106.586,-255.817 171.466,-266.879 l -67.757,-0.528 C 271.905,224.3 236.701,469.745 170.435,481.537 z"
           id="path8"
           style="fill:#f39c12" />
        <path
           d="m 389.094,256.485 c 21.598,40.351 34.147,75.029 52.026,117.009 9.207,-23.929 9.501,-24.805 35.537,-81.401 -10.913,-28.285 -18.412,-46.903 -28.988,-52.982 -23.13,-15.907 -38.95,-5.714 -58.575,17.374 z m 96.204,58.691 c -16.334,40.976 -24.52,56.194 -34.683,83.276 24.623,49.717 35.746,83.312 62.392,83.465 h 72.951 c -34.633,0.096 -99.311,-170.789 -100.66,-166.741 z"
           id="path10"
           style="fill:#e74c3f;fill-opacity:0.94100001" />
        <path
           d="m 524.92,253.775 c 19.06,-19.11 40.662,-28.82 58.667,-13.689 58.505,79.068 68.964,227.153 141.779,242.49 H 653.01 C 591.267,465.933 573.284,332.834 524.92,253.775 z"
           id="path12"
           style="fill:#2980bf;fill-opacity:0.94100001" />
        <path
           d="m 299.51,482.118 76.787,-0.201 C 442.67,434.265 461.209,251.273 545.463,214.373 H 476.077 C 397.799,246.885 364.94,441.513 299.51,481.917 z"
           id="path14"
           style="fill:#27ae6f" />
      </g>
      <path
         d="M 436.644,30 C 275.962,30 170.319,94.678 108.54,214.907 73.079,272.011 51.938,342.974 30,581.683 l 64.851,25.789 c 13.478,220.199 47.151,235.611 194.891,232.3 l 1.937,144.666 350.437,-4.918 V 669.919 C 755.885,609.332 831.841,499.95 831.841,375.073 831.841,184.478 654.905,30.001 436.642,30.001 z m 10.88,42.923 c 163.953,0 296.883,133.848 296.883,298.97 0,165.122 -132.93,298.97 -296.883,298.97 -163.953,0 -296.883,-133.848 -296.883,-298.97 0,-165.122 132.93,-298.97 296.883,-298.97 z"
         id="path16"
         style="color:#000000;fill:#e3e3e3;fill-opacity:1;overflow:visible;enable-background:accumulate" />
    </g>
  </g>
</svg>
